X:47
T:3. Gaillarde
C:Tielman Susato
B:Tielman Susato: "Danserye" (1551) no. 47
R:Galliard
Z:Transcribed by Frank Nordberg - http://www.musicaviva.com
F:http://abc.musicaviva.com/tunes/susato-tielman/susato-1551-47/susato-1551-47-4m.abc
M:3/2
L:1/2
K:Ddor
V:1
DDD|C2D|E>D C/B,/|A,2A,|CDE|F2E|D2^C|D2z:|
|:EEE|E2G|FE2|D>EF|ED2|^C2z:|
|:A,B,C|D/B,/CD|E/C/DE|F2E|D2^C|D2z:|
V:2
A,A,A,|A,2A,|C2C|C2C|A,A,C|C2C|A,A,2|A,2z:|
|:CCC|C2C|A,C2|A,2D|CA,G,|A,2z:|
|:CB,A,|D,A,G,|E,D,G,|A,C>B,|A,/G,/A,2|A,2z:|
V:3
F,F,F,|E,2F,|G,C,E,|F,2F,|E,F,G,|A,2G,|F,E,2|F,2z:|
|:A,A,A,|G,2E,|F,G,2|A,2D,|E,F,D,|E,2z:|
|:F,D,C,|G,E,D,|A,F,E,|A,2G,|F,E,2|D,2z:|
V:4
D,D,D,|A,,2D,|C,>B,, A,,/G,,/|F,,2F,,|A,,D,C,|F,,F,C,|D,A,,2|D,2z:|
|:A,,A,,A,,|C,2C,|F,,C,2|D,2_B,,C,D,_B,,|A,,2z:|
|:F,,G,,A,,|G,,A,,_B,,|A,,B,,C,|F,,F,C,|D,A,,2|D,2:|
W:
W:
W:  From Musica Viva - http://www.musicaviva.com
W:  the Internet center for free sheet music downloads.
